**kern	**kern	**kern	**kern
*staff3	*staff4	*staff1	*staff2
*clefF4	*clefF4	*clefG2	*clefG2
*k[f#c#]	*k[f#c#]	*k[f#c#]	*k[f#c#]
*M2/4	*M2/4	*M2/4	*M2/4
*D:	*D:	*D:	*D:
=-	=-	=-	=-
2r	4D	2r	2r
.	(8.AA#L	.	.
.	32BBLL	.	.
.	32C#JJJ)	.	.
=121	=121	=121	=121
2r	4BB	2r	4dd
.	(8.FF#L	.	(8.a#L
.	32GGLL	.	32bLL
.	32AAJJJ)	.	32cc#JJJ)
=122	=122	=122	=122
2r	4GG	4r	4b [4bb
.	(8.CC#L	(8.eeL	[4ee 4bb]
.	32DDLL	32ff#LL	.
.	32EEJJJ)	32ggJJJ)	.
=123	=123	=123	=123
2r	4FF#	[4aa	4ee]
.	[4F#	(8.aaL]	[4dd
.	.	32bbLL	.
.	.	32ccc#JJJ)	.
=124	=124	=124	=124
2r	8.F#L]	4ddd	4dd]
.	32GLL	.	.
.	32AJJJ	.	.
.	[4B	(8.ddL	[4b
.	.	32eeLL	.
.	.	32ff#JJJ)	.
=125	=125	=125	=125
4r	8.BL]	[4gg	4b] 4dd
.	32c#LL	.	.
.	32dJJJ	.	.
(8.AL	4e	(8.ggL]	4g 4cc#
32BLL	.	32ff#LL	.
32c#JJJ)	.	32eeJJJ)	.
=126	=126	=126	=126
4d	4r	([8ddL	4f#
.	.	32ddLL]	.
.	.	32cc#	.
.	.	32b	.
.	.	32aJJJ)	.
(8.EL	4BB 4D	8.g#L	4r
32F#LL	.	[16eeJk	.
32G#JJJ)	.	.	.
=127	=127	=127	=127
2A	2AA 2C#	(4ee]	4.e
.	.	8a')	.
.	.	8r	8r
=128:|!	=128:|!	=128:|!	=128:|!
*-	*-	*-	*-
